src/24/actions/edit-table-delete-column.svg

<svg xmlns="http://www.w3.org/2000/svg" viewBox="0 0 24 24"><path d="M4 4v16h16V4H4zm1 1h2v4H5V5zm3 0h8v4h-1v1h1v4h-1v1h1v4H8v-4h1v-1H8v-4h1V9H8V5zm9 0h2v4h-2V5zM5 10h2v4H5v-4zm12 0h2v4h-2v-4zM5 15h2v4H5v-4zm12 0h2v4h-2v-4z" fill="currentColor" color="#5d656b"/><path d="M9 5v14h1v-.293l4-4V19h1V5h-1v.293l-4 4V5H9zm5 1.707v2.586l-4 4v-2.586l4-4zm0 4v2.586l-4 4v-2.586l4-4z" fill="currentColor" color="#da4453"/></svg>

<svg xmlns="http://www.w3.org/2000/svg" viewBox="0 0 24 24">
  <defs id="defs3051">
    <style type="text/css" id="current-color-scheme">
      .ColorScheme-Text {
        color:#5d656b;
      }
      .ColorScheme-NegativeText {
        color:#da4453;
      }
      </style>
  </defs>
  <path 
     style="fill:currentColor;fill-opacity:1;stroke:none" 
     d="M 4 4 L 4 5 L 4 19 L 4 20 L 19 20 L 20 20 L 20 4 L 19 4 L 4 4 z M 5 5 L 7 5 L 7 8 L 7 9 L 5.9003906 9 L 5 9 L 5 5 z M 8 5 L 9 5 L 10 5 L 11 5 L 13 5 L 14 5 L 15 5 L 16 5 L 16 8 L 16 9 L 15 9 L 15 10 L 16 10 L 16 14 L 15 14 L 15 15 L 16 15 L 16 19 L 15 19 L 14 19 L 13 19 L 11 19 L 10 19 L 9 19 L 8 19 L 8 15 L 9 15 L 9 14 L 8 14 L 8 10 L 9 10 L 9 9 L 8 9 L 8 8 L 8 5 z M 17 5 L 19 5 L 19 9 L 18 9 L 17 9 L 17 8 L 17 5 z M 5 10 L 7 10 L 7 14 L 5 14 L 5 10 z M 17 10 L 18 10 L 19 10 L 19 14 L 18 14 L 17 14 L 17 10 z M 5 15 L 7 15 L 7 19 L 5 19 L 5 15 z M 17 15 L 18 15 L 19 15 L 19 19 L 17 19 L 17 16 L 17 15 z "
     class="ColorScheme-Text"/>
  <path
     style="fill:currentColor;fill-opacity:1;stroke:none" 
     d="M 9 5 L 9 19 L 10 19 L 10 18.707031 L 14 14.707031 L 14 19 L 15 19 L 15 13.707031 L 15 9.7070312 L 15 5.7070312 L 15 5 L 14.292969 5 L 14 5 L 14 5.2929688 L 10 9.2929688 L 10 5 L 9 5 z M 14 6.7070312 L 14 9.2929688 L 10 13.292969 L 10 10.707031 L 14 6.7070312 z M 14 10.707031 L 14 13.292969 L 10 17.292969 L 10 14.707031 L 14 10.707031 z "
     class="ColorScheme-NegativeText"
     />
</svg>
